assets/images/pr-cy/talk.pr-cy.ru.svg

<?xml version="1.0" encoding="UTF-8" standalone="no"?>
<svg width="32px" height="32px" viewBox="0 0 32 32" version="1.1" xmlns="http://www.w3.org/2000/svg" xmlns:xlink="http://www.w3.org/1999/xlink" xmlns:sketch="http://www.bohemiancoding.com/sketch/ns">
    <!-- Generator: Sketch 3.0.3 (7891) - http://www.bohemiancoding.com/sketch -->
    <title>Talk</title>
    <desc>Created with Sketch.</desc>
    <defs>
        <linearGradient x1="50%" y1="0%" x2="50%" y2="100%" id="linearGradient-1">
            <stop stop-color="#96A8CE" offset="0%"></stop>
            <stop stop-color="#BCC8E0" offset="100%"></stop>
        </linearGradient>
        <path id="path-2" d="M15,24 L21,24 L18,29 L15,24 Z"></path>
    </defs>
    <g id="Page-1" stroke="none" stroke-width="1" fill="none" fill-rule="evenodd" sketch:type="MSPage">
        <g id="Talk" sketch:type="MSArtboardGroup">
            <g id="Triangle-2">
                <use fill="none" sketch:type="MSShapeGroup" xlink:href="#path-2"></use>
                <use fill="url(#linearGradient-1)" fill-rule="evenodd" xlink:href="#path-2"></use>
            </g>
            <path d="M6.15228267,5.32766719 C4.40228267,7.07766719 5,11 5,11 L12,11 L12,4 C12,4 7.90228267,3.57766719 6.15228267,5.32766719 Z" id="Rectangle-1" fill="#A2B2D2" sketch:type="MSShapeGroup"></path>
            <rect id="Rectangle-2" fill="#C6CEE5" sketch:type="MSShapeGroup" x="12" y="4" width="7" height="7"></rect>
            <rect id="Rectangle-3" fill="#FEFFFE" sketch:type="MSShapeGroup" x="19" y="4" width="7" height="7"></rect>
            <rect id="Rectangle-6" fill="#98A7CE" sketch:type="MSShapeGroup" x="5" y="11" width="7" height="7"></rect>
            <rect id="Rectangle-4" fill="#758CBF" sketch:type="MSShapeGroup" x="12" y="11" width="7" height="7"></rect>
            <rect id="Rectangle-5" fill="#DBE0EC" sketch:type="MSShapeGroup" x="19" y="11" width="7" height="7"></rect>
            <path d="M5,18 C5,18 4.57894897,21.4453125 6.32894897,22.9765625 C8.07894897,24.5078125 12,24.9220276 12,24.9220276 L12,18 L5,18 Z" id="Rectangle-9" fill="#D2DAE6" sketch:type="MSShapeGroup"></path>
            <rect id="Rectangle-7" fill="#96A8CE" sketch:type="MSShapeGroup" x="12" y="18" width="7" height="6.91583252"></rect>
            <path d="M19,18 L19,24.996582 C19,24.996582 23.0229492,24.6171608 24.7729492,23.0859108 C26.5229492,21.5546608 26,18 26,18 L19,18 Z" id="Rectangle-8" fill="#BCC8E0" sketch:type="MSShapeGroup"></path>
        </g>
    </g>
</svg>

<svg xmlns="http://www.w3.org/2000/svg" height="32" width="32" xmlns:xlink="http://www.w3.org/1999/xlink" viewBox="0 0 32 32"><title>Talk</title><desc>Created with Sketch.</desc><defs><linearGradient id="b" x2="50%" x1="50%" y2="100%"><stop stop-color="#96A8CE" offset="0"/><stop stop-color="#BCC8E0" offset="1"/></linearGradient><path id="a" d="M15 24h6l-3 5-3-5z"/></defs><g fill-rule="evenodd" fill="none"><g><g><use xlink:href="#a"/><use xlink:href="#a" fill="url(#b)"/></g><path fill="#A2B2D2" d="M6.152 5.328C4.402 7.078 5 11 5 11h7V4s-4.098-.422-5.848 1.328z"/><path fill="#C6CEE5" d="M12 4h7v7h-7z"/><path fill="#FEFFFE" d="M19 4h7v7h-7z"/><path fill="#98A7CE" d="M5 11h7v7H5z"/><path fill="#758CBF" d="M12 11h7v7h-7z"/><path fill="#DBE0EC" d="M19 11h7v7h-7z"/><path fill="#D2DAE6" d="M5 18s-.42 3.445 1.33 4.977c1.75 1.53 5.67 1.945 5.67 1.945V18H5z"/><path fill="#96A8CE" d="M12 18h7v6.916h-7z"/><path fill="#BCC8E0" d="M19 18v6.997s4.023-.38 5.773-1.91S26 18 26 18h-7z"/></g></g></svg>
